images/payments/invoice-de.svg

<svg width="40" height="40" viewBox="0 0 40 40" fill="none" xmlns="http://www.w3.org/2000/svg">
<path fill-rule="evenodd" clip-rule="evenodd" d="M31.1131 14.3728C31.0862 14.6921 31.173 15.0106 31.3582 15.2721C31.5115 15.4511 31.7354 15.5542 31.9711 15.5544C32.2069 15.5546 32.4309 15.4519 32.5846 15.2731C32.7706 15.0182 32.8587 14.7048 32.8327 14.3902C32.8556 14.0797 32.7648 13.7714 32.5774 13.5227C32.427 13.3373 32.2009 13.2299 31.9621 13.2305C31.7282 13.2292 31.5065 13.335 31.3602 13.5176C31.1779 13.7638 31.0902 14.0673 31.1131 14.3728ZM30.6733 16.254L31.1901 16.3309C31.1994 16.4666 31.2643 16.5924 31.3696 16.6785C31.5287 16.7848 31.7179 16.8366 31.909 16.8262C32.1099 16.8388 32.3096 16.787 32.4791 16.6785C32.6149 16.5766 32.7107 16.4304 32.7498 16.2653C32.7857 16.0402 32.7987 15.8121 32.7888 15.5844C32.5784 15.8476 32.2582 15.999 31.9213 15.9945C31.5314 16.0136 31.1573 15.839 30.9215 15.528C30.6817 15.2055 30.5572 14.8119 30.5677 14.4103C30.5646 14.1262 30.6198 13.8446 30.7297 13.5827C30.8256 13.3458 30.9894 13.1425 31.2004 12.9982C31.4152 12.8576 31.6676 12.7854 31.9243 12.7911C32.2833 12.7856 32.6233 12.9522 32.839 13.2392V12.8618H33.3282V15.569C33.3505 15.9214 33.2999 16.2747 33.1795 16.6067C33.0772 16.8132 32.912 16.982 32.7078 17.0887C32.4617 17.2137 32.1879 17.2744 31.912 17.2651C31.591 17.2802 31.2736 17.1918 31.0066 17.0128C30.7718 16.8344 30.6458 16.5475 30.6733 16.254ZM27.4111 15.9938V12.8611H27.889V13.3062C28.1058 12.9691 28.4854 12.7727 28.8857 12.7904C29.0645 12.7886 29.2418 12.8235 29.4066 12.8929C29.5476 12.9473 29.6707 13.0396 29.7625 13.1595C29.8439 13.2772 29.8998 13.4106 29.9265 13.5512C29.9514 13.722 29.9617 13.8945 29.9573 14.067V15.9938H29.4261V14.0886C29.4337 13.9242 29.4129 13.7598 29.3646 13.6025C29.3223 13.4945 29.2446 13.4041 29.1441 13.3462C29.032 13.2806 28.9038 13.2476 28.7739 13.2508C28.5587 13.2468 28.3498 13.3236 28.1884 13.4661C27.996 13.6919 27.9068 13.9879 27.9423 14.2824V15.9938H27.4111ZM26.1053 15.994V15.5335C25.8897 15.8727 25.5123 16.0742 25.1106 16.0647C24.9328 16.0658 24.7567 16.0295 24.5938 15.9581C24.4533 15.9024 24.3302 15.8104 24.2369 15.6915C24.1546 15.5735 24.0986 15.4392 24.0729 15.2977C24.0467 15.134 24.0357 14.9682 24.0401 14.8024V12.8613H24.5712V14.5983C24.5651 14.7859 24.5761 14.9737 24.604 15.1593C24.6326 15.2908 24.708 15.4074 24.8163 15.4874C24.9331 15.5697 25.0734 15.6118 25.2162 15.6074C25.3743 15.6077 25.5295 15.5652 25.6654 15.4843C25.7992 15.4098 25.9039 15.2924 25.9627 15.1511C26.0292 14.9544 26.0584 14.7472 26.0489 14.5399V12.8613H26.5801V15.994H26.1053ZM20.6928 15.9938V12.8611H21.1707V13.3062C21.3874 12.9691 21.767 12.7727 22.1674 12.7904C22.3459 12.7887 22.5228 12.8236 22.6873 12.8929C22.8282 12.9473 22.9513 13.0396 23.0431 13.1595C23.1249 13.2771 23.1811 13.4106 23.2082 13.5512C23.2327 13.722 23.2427 13.8946 23.2379 14.067V15.9938H22.7068V14.0886C22.7144 13.9242 22.6935 13.7598 22.6452 13.6025C22.603 13.4945 22.5252 13.4041 22.4248 13.3462C22.3129 13.2808 22.1851 13.2478 22.0556 13.2508C21.84 13.2465 21.6307 13.3234 21.4691 13.4661C21.2767 13.6919 21.1874 13.9879 21.223 14.2824V15.9938H20.6928ZM17.3326 15.9952V11.671H17.8638V13.2225C18.0944 12.9432 18.44 12.7846 18.8021 12.7918C19.012 12.7866 19.22 12.8339 19.4071 12.9292C19.5682 13.011 19.6972 13.1446 19.7732 13.3086C19.8577 13.5324 19.8954 13.7711 19.8839 14.01V15.9952H19.3538V14.009C19.3719 13.8008 19.3099 13.5936 19.1805 13.4296C19.0507 13.3029 18.8734 13.2369 18.6924 13.2481C18.5359 13.248 18.3824 13.2906 18.2483 13.3712C18.1158 13.4459 18.0116 13.5624 17.952 13.7024C17.8856 13.8873 17.8557 14.0834 17.8638 14.2797V15.9942L17.3326 15.9952ZM16.3559 14.8454L16.8789 14.9141C16.8398 15.2396 16.6838 15.5399 16.44 15.7591C16.1994 15.9648 15.891 16.0737 15.5746 16.0646C15.1854 16.0807 14.8084 15.9274 14.5409 15.6442C14.2608 15.3076 14.1209 14.8762 14.1502 14.4393C14.1436 14.1348 14.2009 13.8323 14.3184 13.5513C14.4201 13.3089 14.6003 13.1078 14.8301 12.9801C15.0588 12.8536 15.3163 12.7882 15.5776 12.7904C15.8773 12.7777 16.1722 12.869 16.4123 13.0488C16.6358 13.2338 16.7836 13.4943 16.8276 13.781L16.3118 13.861C16.2783 13.6786 16.1866 13.512 16.0504 13.3862C15.9241 13.2798 15.7632 13.2232 15.5981 13.2273C15.3485 13.2192 15.1086 13.3248 14.946 13.5144C14.7571 13.7782 14.6684 14.1007 14.6958 14.424C14.668 14.7486 14.7535 15.0729 14.9378 15.3417C15.0925 15.5293 15.3253 15.6349 15.5684 15.6278C15.761 15.6341 15.9485 15.5653 16.0914 15.4361C16.2456 15.2764 16.3392 15.0678 16.3559 14.8464V14.8454ZM11.3553 14.128H13.1037C13.0981 13.9149 13.0284 13.7083 12.9038 13.5353C12.7448 13.3351 12.501 13.2212 12.2454 13.2277C12.0154 13.2224 11.7931 13.3113 11.6302 13.4738C11.4591 13.6493 11.3609 13.8831 11.3553 14.128ZM13.0986 14.9861L13.6472 15.0538C13.5762 15.3502 13.4062 15.6136 13.1652 15.8003C12.9041 15.9856 12.5889 16.079 12.269 16.0659C11.8623 16.0859 11.4663 15.9319 11.18 15.6423C10.895 15.3148 10.7503 14.8883 10.777 14.4549C10.7493 14.0089 10.8952 13.5694 11.1841 13.2285C11.4563 12.9369 11.8416 12.7775 12.2403 12.7916C12.6279 12.779 13.0019 12.935 13.2657 13.2192C13.5491 13.554 13.692 13.9854 13.6646 14.4231L13.6615 14.5646H11.3246C11.3238 14.8544 11.4275 15.1348 11.6168 15.3542C11.7859 15.5347 12.0238 15.6346 12.271 15.629C12.4496 15.6339 12.6247 15.5799 12.7694 15.4752C12.9246 15.348 13.0387 15.1779 13.0975 14.9861H13.0986ZM7.2389 13.5785H8.46942C8.67699 13.5859 8.88431 13.5582 9.08263 13.4965C9.22037 13.4502 9.33873 13.3592 9.41898 13.2381C9.49461 13.1226 9.53455 12.9875 9.53382 12.8494C9.53873 12.6568 9.45709 12.472 9.31131 12.346C9.10841 12.1972 8.85854 12.1269 8.60786 12.148H7.2389V13.5785ZM6.66675 15.9936V11.6704H8.58431C8.88176 11.6574 9.17918 11.6967 9.46311 11.7863C9.6654 11.8654 9.83493 12.0107 9.94403 12.1985C10.0636 12.3945 10.1257 12.6201 10.1235 12.8496C10.1311 13.1376 10.0242 13.4168 9.82611 13.6259C9.57402 13.8609 9.24902 14.0024 8.90527 14.0268C9.02981 14.0824 9.14609 14.1549 9.25084 14.2422C9.43262 14.4132 9.59213 14.6065 9.72562 14.8174L10.4773 15.9946H9.75843L9.18624 15.0943C9.01875 14.8345 8.881 14.6363 8.77299 14.4996C8.69217 14.3884 8.59422 14.2908 8.48279 14.2104C8.40272 14.1574 8.31433 14.1182 8.22131 14.0945C8.11621 14.0778 8.00979 14.071 7.90342 14.074H7.23894V15.9946L6.66675 15.9936Z" fill="#FD6000"/>
<path fill-rule="evenodd" clip-rule="evenodd" d="M33.3334 20H6.66675V22.5H33.3334V20ZM33.3334 25.8333H6.66675V28.3333H33.3334V25.8333Z" fill="#DDDDDD"/>
</svg>

<svg xmlns="http://www.w3.org/2000/svg" width="40" height="40" fill="none"><path fill="#FD6000" fill-rule="evenodd" d="M31.113 14.373c-.027.32.06.638.245.9a.808.808 0 0 0 1.227 0c.186-.255.274-.568.248-.883a1.285 1.285 0 0 0-.256-.867.79.79 0 0 0-.615-.293.766.766 0 0 0-.602.288c-.182.246-.27.55-.247.855m-.44 1.881.517.077c.01.136.074.261.18.348a.88.88 0 0 0 .539.147c.2.013.4-.039.57-.148a.726.726 0 0 0 .27-.413c.037-.225.05-.453.04-.68-.21.263-.53.414-.868.41a1.183 1.183 0 0 1-1-.467 1.795 1.795 0 0 1-.353-1.118 2.08 2.08 0 0 1 .162-.827c.096-.237.26-.44.47-.585a1.27 1.27 0 0 1 .724-.207c.36-.005.7.161.915.448v-.377h.49v2.707c.021.352-.03.706-.15 1.038a1.09 1.09 0 0 1-.471.482c-.246.125-.52.185-.796.176a1.5 1.5 0 0 1-.905-.252.853.853 0 0 1-.334-.759m-3.262-.26V12.86h.478v.445c.217-.337.596-.533.997-.516.178-.001.356.034.52.103a.82.82 0 0 1 .357.266c.08.118.137.252.163.392.025.171.036.344.031.516v1.927h-.53v-1.905a1.43 1.43 0 0 0-.062-.487.51.51 0 0 0-.22-.256.699.699 0 0 0-.371-.095.86.86 0 0 0-.586.215 1.063 1.063 0 0 0-.246.816v1.712zm-1.306 0v-.46c-.215.339-.593.54-.994.53a1.268 1.268 0 0 1-.517-.106.853.853 0 0 1-.357-.267 1.001 1.001 0 0 1-.164-.393 2.684 2.684 0 0 1-.033-.496v-1.94h.531v1.736c-.006.188.005.376.033.561a.554.554 0 0 0 .212.328.659.659 0 0 0 .4.12.875.875 0 0 0 .45-.123.68.68 0 0 0 .297-.333 1.67 1.67 0 0 0 .086-.611v-1.68h.531v3.133zm-5.412 0V12.86h.478v.445c.216-.337.596-.533.996-.516.179-.001.356.034.52.103a.82.82 0 0 1 .356.266c.082.118.138.252.165.392.025.171.035.344.03.516v1.927h-.531v-1.905a1.43 1.43 0 0 0-.062-.487.51.51 0 0 0-.22-.256.7.7 0 0 0-.37-.095.86.86 0 0 0-.586.215 1.062 1.062 0 0 0-.246.816v1.712zm-3.36.001v-4.324h.53v1.552c.231-.28.577-.438.94-.431.209-.005.417.042.604.137.161.082.29.216.366.38.085.223.122.462.11.701v1.985h-.53V14.01a.82.82 0 0 0-.173-.58.642.642 0 0 0-.488-.18.861.861 0 0 0-.444.122.691.691 0 0 0-.296.331 1.523 1.523 0 0 0-.088.578v1.714zm-.977-1.15.523.07c-.04.325-.195.625-.439.844-.24.206-.549.315-.865.306a1.345 1.345 0 0 1-1.034-.42 1.705 1.705 0 0 1-.39-1.206 2.18 2.18 0 0 1 .167-.888 1.17 1.17 0 0 1 .512-.57c.229-.127.486-.193.748-.19a1.3 1.3 0 0 1 .834.258c.224.185.372.445.416.732l-.516.08a.857.857 0 0 0-.262-.475.676.676 0 0 0-.452-.159.824.824 0 0 0-.652.287 1.364 1.364 0 0 0-.25.91 1.41 1.41 0 0 0 .242.918.788.788 0 0 0 .63.286.744.744 0 0 0 .523-.192.952.952 0 0 0 .265-.59zm-5-.717h1.748a1.062 1.062 0 0 0-.2-.593.814.814 0 0 0-.659-.307.844.844 0 0 0-.615.246.969.969 0 0 0-.275.654m1.743.858.548.068c-.07.296-.24.56-.482.746a1.446 1.446 0 0 1-.896.266 1.432 1.432 0 0 1-1.089-.424 1.654 1.654 0 0 1-.403-1.187 1.731 1.731 0 0 1 .407-1.226 1.378 1.378 0 0 1 1.056-.437 1.34 1.34 0 0 1 1.026.427 1.7 1.7 0 0 1 .399 1.204l-.003.142h-2.337c-.001.29.103.57.292.79.169.18.407.28.654.274a.812.812 0 0 0 .498-.154c.156-.127.27-.297.329-.489zm-5.86-1.408h1.23c.208.008.415-.02.614-.082a.653.653 0 0 0 .336-.258.703.703 0 0 0 .115-.389.644.644 0 0 0-.223-.503 1.042 1.042 0 0 0-.703-.198h-1.37zm-.572 2.416V11.67h1.917a2.55 2.55 0 0 1 .88.116.96.96 0 0 1 .48.412c.12.197.182.422.18.652.007.288-.1.567-.298.776a1.507 1.507 0 0 1-.92.4c.124.056.24.129.345.216.182.171.341.364.475.575l.751 1.178h-.719l-.572-.9a8.013 8.013 0 0 0-.413-.595 1.297 1.297 0 0 0-.29-.29.857.857 0 0 0-.262-.116 1.717 1.717 0 0 0-.318-.02H7.24v1.92z" clip-rule="evenodd"/><path fill="#DDD" fill-rule="evenodd" d="M33.333 20H6.667v2.5h26.666zm0 5.833H6.667v2.5h26.666z" clip-rule="evenodd"/></svg>
